!! "Gender Wajang Slendro" [Bali] Metallophone work in 2 parts.
!! from Fritz Bose, 'Musikalische Voelkerkunde';
!! Freiburg: Atlantis-Musikbuecherei, 1953, p.188
!! NOTE: This work is predominantly in two parts; the third parts
!!       appears as a bass in the last two bars, and has been omitted
!!       in this arrangement.  The complete score is encoded in the
!!       file "balinese.03x".
**kern	**kern
*M4/4	*M4/4
=1	=1
8f	8a
8f	8a
12f	12a
12f	12a
12f	12a
16f	16a
16f	16a
16f	16a
[16f	[16a
4f;]	4a;]
=2	=2
64a	32dd
64a	.
8..a	8..dd
12f	12a
12g	12cc
12a	12dd
4a	4dd
4r	4r
=3	=3
8f	8a
8f	8a
12f	12a
12f	12a
12f	12a
16f	16a
16f	16a
16f	16a
[16f	[16a
4f]	4a]
=4	=4
32a	32dd
8..a	8..dd
12f	12a
12g	12cc
12a	12dd
4cc	4ff
4r	4r
=5	=5
4dd	4gg
8a	8dd
16cc	16ff
16dd	16gg
4dd	4gg
8a	8dd
8dd	8gg
=6	=6
12cc	12ff
24a	12dd
24a	.
12g	12cc
4f	4a
4r	4r
4a	4dd
=7	=7
4dd	4gg
4a	4dd
4f	4a
4a	4dd
=8	=8
8dd	8gg
16cc	16ff
16a	16dd
8cc	8ff
16a	16dd
16g	16cc
8a	8dd
16g	16cc
16f	16a
8g	8cc
24g	24cc
24f	24a
24d	24g
=9	=9
4f	4a
4r	4r
2r;	2r;
=10	=10
8a	8dd
8a	8dd
12a	12dd
12a	12dd
12a	12dd
16a	16dd
16a	16dd
16a	16dd
[16a	[16dd
4a;]	4dd;]
=11	=11
8r	8r
8f	8a
12f	12a
12f	12a
12f	12a
16f	16a
16f	16a
16f	16a
[16f	[16a
4f;]	4a;]
=12	=12
32a	32dd
8..a	8..dd
8f	8a
16g	16cc
16a	16dd
4cc	4ff
4r	4r
=13	=13
4dd	4gg
8.a	8.dd
16cc	16ff
4dd;	4gg;
8a	8dd
8dd	8gg
=14	=14
12cc	12ff
12a	12dd
12g	12cc
4f	4a
8a	8dd
8f	8a
12g	12cc
12a	12dd
12cc	12ff
=15	=15
4dd;	4gg;
8a	8dd
8dd	8gg
12cc	12ff
12a	12dd
12g	12cc
4f	4a
=16	=16
8a	8dd
8f	8a
12g	12cc
12a	12dd
12cc	12ff
4dd	4gg
4r;	4r;
=17	=17
16dd	16gg
16cc	16gg
16dd	16gg
16cc	16gg
16cc	16ff
16a	16gg
16cc	16ff
16a	16dd
16dd	16gg
16cc	16gg
16dd	16gg
16cc	16gg
16cc	16ff
16a	16gg
16cc	16ff
16a	16dd
=18	=18
16dd	16gg
16cc	16gg
16dd	16gg
16cc	16gg
16cc	16ff
16a	16gg
16cc	16ff
16a	16dd
16dd	16gg
16cc	16gg
16dd	16gg
32g	32ff
32a	32dd
4cc	4ff
==	==
*-	*-
